libs/ui/packages/crypto-icons/src/svg/MSR.svg

<svg width="24" height="24" viewBox="0 0 24 24" fill="none">
<path d="M12.0026 4.5C7.86262 4.5 4.50262 7.86 4.50262 12C4.50262 12.0998 4.51237 12.195 4.51762 12.2947H8.03737L9.73762 9.36975L12.0026 12.615L14.2624 9.36975L15.9626 12.2947H19.4824C19.4876 12.195 19.4974 12.0998 19.4974 12C19.5026 7.86 16.1426 4.5 12.0026 4.5ZM17.1724 11.3903C16.8679 8.805 14.6674 6.795 12.0026 6.795C9.33787 6.795 7.13737 8.81025 6.83288 11.3903H5.92237C6.22762 8.30475 8.83763 5.88975 12.0026 5.88975C15.1676 5.88975 17.7724 8.30475 18.0829 11.3903H17.1724Z" fill="#47B95C"/>
<path d="M14.1978 11.0498L12.0026 14.1998L9.80732 11.0498L8.55782 13.2001H4.60757C5.18282 16.7701 8.26757 19.5001 12.0026 19.5001C15.7376 19.5001 18.8223 16.7701 19.3976 13.1948H15.4473L14.1978 11.0498ZM16.7628 14.1001H17.7326C16.8723 16.4348 14.6328 18.1103 12.0026 18.1103C9.37232 18.1103 7.13282 16.4348 6.27257 14.1001H7.24232C8.05232 15.9248 9.87782 17.2051 12.0026 17.2051C14.1273 17.2051 15.9528 15.9248 16.7628 14.1001Z" fill="#47B95C"/>
</svg>

<svg width="24" height="24" viewBox="0 0 24 24" fill="none"><path fill="#47b95c" d="M12.003 4.5c-4.14 0-7.5 3.36-7.5 7.5 0 .1.01.195.015.295h3.52l1.7-2.925 2.265 3.245 2.26-3.245 1.7 2.925h3.52c.005-.1.014-.195.014-.295.006-4.14-3.354-7.5-7.494-7.5m5.17 6.89a5.21 5.21 0 0 0-5.17-4.595 5.217 5.217 0 0 0-5.17 4.595h-.91a6.116 6.116 0 0 1 6.08-5.5c3.165 0 5.77 2.415 6.08 5.5z"/><path fill="#47b95c" d="m14.198 11.05-2.195 3.15-2.196-3.15-1.25 2.15h-3.95c.576 3.57 3.66 6.3 7.396 6.3s6.82-2.73 7.395-6.305h-3.95zm2.565 3.05h.97c-.86 2.335-3.1 4.01-5.73 4.01s-4.87-1.675-5.73-4.01h.97a5.21 5.21 0 0 0 4.76 3.105c2.124 0 3.95-1.28 4.76-3.105"/></svg>
